X:1
T:Title
%%score 1 { 2 | 3 }
L:1/8
Q:1/4=110
M:4/4
K:G
V:1 treble nm="Grand Piano, Staff"
V:2 bass nm="Choir Pad, O du Liebe, 87.87D"
V:3 bass 
V:1
 [DG]2 [DA]2 [DB]2 [Gd]2 | [Ec]2 [DB]2 [DA]2 [DA]2 | [DB]2 [DA]2 [B,G]2 [EA]2 | [DG]2 [DF]2 [DG]4 | %4
w: By~Musikalischer~Christenschatz~(Basel:~1745) * * *||||
 [DG]2 [DA]2 [DB]2 [Gd]2 | [Ec]2 [DB]2 [DA]2 [DA]2 | [DB]2 [DA]2 [B,G]2 [EA]2 | [DG]2 [DF]2 [DG]4 | %8
w: ||||
 [DF]2 [DG]2 [EA]2 [DA]2 | [DG]2 [DF]2 [DE]2 [^CE]2 | [DF]2 [DG]2 [FA]2 [GB]2 | [Gc]2 [GB]2 [FA]4 | %12
w: ||||
 [EG]2 [DA]2 [DB]2 [Gd]2 | [Ec]2 [DB]2 [DA]2 [DA]2 | [GB]2 [EA]2 [DG]2 [EA]2 | [DG]2 [DF]2 [DG]4- | %16
w: ||||
 [DG]4 z4 |] %17
w: |
V:2
 B,2 A,2 G,2 G,2 | G,2 G,2 G,2 F,2 | G,2 F,2 G,2 C2 | B,2 A,2 B,4 | B,2 A,2 G,2 G,2 | %5
 G,2 G,2 G,2 F,2 | G,2 F,2 G,2 C2 | B,2 A,2 B,4 | A,2 B,2 ^C2 A,2 | B,2 A,2 A,2 A,2 | %10
 A,2 B,2[K:treble] C2 D2 | E2 D2 D4 | B,2 A,2 G,2 G,2 | G,2 G,2 G,2 F,2 | D2 C2 G,2 C2 | %15
 B,2 B,2 B,4- | B,4 z4 |] %17
V:3
 G,2 F,2 z2 B,,2 | C,2 G,,2 D,2 D,2 | z2 D,2 E,2 C,2 | D,2 D,2 G,,4 | G,2 F,2 z2 B,,2 | %5
 C,2 G,,2 D,2 D,2 | z2 D,2 E,2 C,2 | D,2 D,2 G,,4 | D,2 B,,2 A,,2 F,,2 | G,,2 D,2 A,,2 A,,2 | %10
 D,2 B,,2 A,,2 G,,2 | C,2 G,2 D,4 | E,2 F,2 z2 B,,2 | C,2 G,,2 D,2 D,2 | G,,2 A,,2 B,,2 C,2 | %15
 D,2 D,2 G,,4- | G,,4 z4 |] %17

